X:1
T:G major          Jeremiah Ingalls, 1805
T:Susanna Harrison, 1780, Songs In The Night , No. 80 88. 88. (L. M.)
T:Tranquility
T:Transcribed from Ingalls' Christian Harmony , 1805 ; Counter by B. C. Johnston, 2017..
%%score [ 1 2 3 4 ]
L:1/8
Q:1/4=130
M:6/8
K:G
V:1 treble nm="Tr." snm="Tr."
V:2 treble nm="C." snm="C."
V:3 treble-8 nm="T." snm="T."
V:4 bass nm="B." snm="B."
V:1
"^1. A  – way,  my doubts, be  gone,  my fears,  The  wonders  of the Lord appear,  The  wonders  that my Savior  wrought;   O  how  de–light–ful    is   the   thought!        The \n2. Pursue, my thoughts, this pleasing theme,  'Twas  not  a  fancy  nor  a   dream;  'Twas  grace  descending from the skies,  Shall   be  mar–ve–lous  in  my  eyes.              Long" d | %1
 BGB d2 d | BGB d2 d | B2 B B2 e | d2 c B2 d | BGB d2 d | BGB d2 d | B2 B B2 e | d2 c B3- | %9
 B3 z2 B |: %10
"^1. wonders of redeeming love, When first my heart was drawn above; When first I saw my Savior's face, And triumphed in His pardoning grace.  The    pardoning grace.\n2. had I mourned, like one forgot, Long had my soul for comfort sought, Je–sus was witness to my tears,  And Jesus sweetly calmed my fears.       Long   calmed my fears." B2 d e2 e | %11
 BAB e2 e | B2 d e2 e | BAB e2 d | BGB d2 d | BGB d2 d | B2 B B2 e |1 d2 c B3- | B3 z2 B :|2 %19
 d2 c B3- | B3 |] %21
V:2
"^3. He cleansed my soul, he changed my dress,  And clothed me with his righteousness:  He spoke at once my sins forgiven,  And I  rejoiced  as      if     in     heaven.         How" G | %1
 BdB A2 B | BdB A2 B | d2 d d2 c | B2 c d2 G | BdB A2 B | BdB A2 B | d2 d d2 c | B2 c B3- | %9
 B3 z2 E |: %10
"^3. was I struck with sweet surprise, While glory shone before my eyes! How did I sing from day to day, And wished to sing my soul away!           How    my soul  away!" E2 F G2 E | %11
 EAB B2 E | E2 F G2 E | EAB B2 G | BdB A2 B | BdB A2 B | d2 d d2 c |1 B2 c B3- | B3 z2 E :|2 %19
 B2 c B3- | B3 |] %21
V:3
"^4. The  world  with  all  its  pomp  withdrew,  Twas  less  than nothing in my view;  Re–dee–ming love was all my theme,   And  life  ap – peared  an  i– dle  dream.           I \n5. The  powers  of  hell  in  vain  com–bined   To  tempt  or  interrupt  my  mind;   I   saw,  and   sung   in   joy–ful   strains  The  monster  Sa – tan  held  in   chains.         These" B | %1
 dBG A2 B | dBG A2 B | d2 d d2 e | B2 A G2 B | dBG A2 B | dBG A2 B | d2 d d2 e | B2 A G3- | %9
 G3 z2 B |: %10
"^4. glo–ried in my Savior's grace;  I sang my great Redeemer's praise;  My soul now longed to soar away, And leave her  ten-e-ment  of clay.              I        –ment  of clay.\n5.  are  the  wonders  I  record,  The marvelous goodness of the Lord;  O for a tongue to speak his praise,  To tell the triumphs of his  grace!          These    of  his  grace!" e2 f g2 f | %11
 ede B2 B | e2 f g2 f | ede B2 B | dBG A2 B | dBG A2 B | d2 d d2 e |1 B2 A G3- | G3 z2 B :|2 %19
 B2 A G3- | G3 |] %21
V:4
 G, | G,2 G, D,2 D, | G,2 G, D,2 D, | G,2 G, G,2 C, | D,2 D, G,,2 D, | G,2 G, D,2 D, | %6
 G,2 G, D,2 D, | G,2 G, G,2 C, | D,2 D, G,,3- | G,,3 z2 E, |: E,2 E, E,2 E, | E,2 E, E,2 E, | %12
 E,2 E, E,2 E, | E,2 E, E,2 D, | G,2 G, D,2 D, | G,2 G, D,2 D, | G,2 G, G,2 C, |1 D,2 D, G,,3- | %18
 G,,3 z2 E, :|2 D,2 D, G,,3- | G,,3 |] %21

